X:1
T:Gates Ajar, 11.11.11.11
T:John H. Kurzenknabe, 1886
T:Gates Ajar, 11.11.11.11
T:Public Domain
C:John H. Kurzenknabe, 1886
Z:Public Domain
%%score ( 1 2 ) 3
L:1/8
M:3/4
K:G
V:1 treble 
V:2 treble 
V:3 bass 
V:1
 D2 | [GB]2 [DA]2 [DG]2 | [EA]2 [CE]2 [EA]2 | [Fc]2 [GB]2 [FA]2 | [Gd]4 [GB]2 | %5
 [GB]2 [Gd]2 [=FB]2 | [Ec]2 [EB]2 [EA]2 | [DG]2 [GB]2 [DA]2 | [DG]4 [FA]2 | [FA]2 [GB]2 [FA]2 | %10
 [Fd]4 [Fd][Fd] | [Ge]2 [GB]2 [G^c]2 | [Fd]4 [Fc]2 | [GB]2 [Gd]2 [=FB]2 | [Ec]2 [EB]2 [EA]2 | %15
 [DG]2 [GB]2 [DA]2 | [DG]4 |] %17
V:2
 D2 | x6 | x6 | x6 | x6 | x6 | x6 | x6 | x6 | x6 | x6 | x6 | x6 | x6 | x6 | x6 | x4 |] %17
V:3
 [G,B,]2 | [G,D]2 [G,C]2 [G,B,]2 | [C,C]2 [C,C]2 [C,C]2 | [D,A,]2 [D,D]2 [C,D]2 | [B,,D]4 [G,,D]2 | %5
 [G,,D]2 [B,,D]2 [G,,D]2 | [A,,C]2 [B,,^G,]2 [C,A,]2 | [D,B,]2 [D,D]2 [D,C]2 | [G,B,]4 [D,D]2 | %9
 [D,D]2 [D,D]2 [D,D]2 | [D,A,]4 [B,,B,][B,,B,] | [E,B,]2 [E,E]2 [A,,E]2 | [D,D]4 [D,D]2 | %13
 [G,,D]2 [B,,D]2 [G,,D]2 | [A,,C]2 [B,,^G,]2 [C,A,]2 | [D,B,]2 [D,D]2 [D,C]2 | [G,,G,B,]4 |] %17

